X:26
T:The Blarney Pilgrim
C:Cronin
N:Adapted from O'Neills of Ireland, page 207 No.1099
M:6/8
L:1/8
Q:1/4=70
K:G
|: "D" DED DEG | "A" A2 G ABc | "G" BAG AGE | "G" GEA GED |
"D" DED DEG | "A" A2 G ABc | "G" BAG AGE | "A" AED "D" D2 z :|
|: "D" ded dBG | "A" AGA BGE | "D" ded dBG | "A" AGA "G" G3 |
"G" g2 e dBG | "A" AGA BGE | "G" B2 G "A" AGE | "G" GAG G2 z :|
|: "D" A2 D "G" B2 D | "D" A2 D ABc | "G" BAG "A" AGE | "G" GEA GED |
"D" A2 D "G" B2 D | "D" A2 D ABc | "G" BAG "A" AGE | "G" GED D2 z :|


